assets/Gloves/Flat/gloves_flat.svg

<svg width="32" height="32" viewBox="0 0 32 32" fill="none" xmlns="http://www.w3.org/2000/svg">
<path d="M26.1483 9.05392C25.3583 8.64392 24.3983 8.95392 23.9883 9.74392L22.1583 13.3639L21.4883 10.6839C21.4783 10.6039 21.4683 10.5239 21.4483 10.4439L19.6883 3.88392C19.4683 3.05392 18.6283 2.49392 17.7883 2.69392C16.9183 2.90392 16.3983 3.78392 16.6283 4.63392L18.1983 10.4839L17.7983 10.6239L15.5683 3.18392C15.3183 2.35392 14.4683 1.82392 13.6283 2.05392C12.7683 2.28392 12.2683 3.18392 12.5283 4.03392L14.8183 11.6639L14.5183 11.7639L11.9783 5.10392C11.6683 4.29392 10.7883 3.82392 9.96834 4.10392C9.12834 4.39392 8.68834 5.32392 9.00834 6.15392L11.5183 12.7739L11.0783 12.9239L9.15834 8.41392C8.81834 7.61392 7.88834 7.24392 7.08834 7.58392C6.28834 7.92392 5.91834 8.85392 6.25834 9.65392L8.09834 13.9739L10.6683 21.2639L10.6883 21.2539L12.8283 27.3239C13.2783 28.6139 14.6883 29.2839 15.9783 28.8339L24.8683 25.7039C26.1583 25.2539 26.8283 23.8439 26.3783 22.5539L24.7383 17.9139C24.7683 17.6639 24.7883 17.4139 24.8083 17.1639C24.9083 15.7639 25.6383 13.9239 26.8483 11.2239C27.1983 10.4039 26.9383 9.46392 26.1483 9.05392Z" fill="#6B438B"/>
<path d="M23.9883 9.37392C23.1783 9.01392 22.2283 9.38392 21.8783 10.1939L20.2783 13.9239L19.4383 11.2839C19.4283 11.2039 19.4083 11.1239 19.3783 11.0439L17.2083 4.61392C16.9283 3.79392 16.0583 3.29392 15.2383 3.54392C14.3783 3.80392 13.9183 4.71392 14.1983 5.55392L16.1383 11.2939L15.7383 11.4639L13.0383 4.17392C12.7383 3.36392 11.8483 2.89392 11.0383 3.16392C10.1783 3.44392 9.74831 4.37392 10.0483 5.20392L12.8183 12.6739L12.5183 12.7939L9.59831 6.32392C9.23831 5.53392 8.32831 5.12392 7.52831 5.45392C6.69831 5.80392 6.32831 6.75392 6.69831 7.56392L9.61831 14.0139L9.18831 14.1939L6.98831 9.80392C6.59831 9.03392 5.64831 8.72392 4.86831 9.11392C4.08831 9.50392 3.77831 10.4539 4.16831 11.2339L6.26831 15.4239L9.29831 22.5439L9.31831 22.5339L11.8383 28.4539C12.3683 29.7039 13.8183 30.2939 15.0783 29.7639L23.7583 26.0739C25.0083 25.5439 25.5983 24.0939 25.0683 22.8339L23.1383 18.3039C23.1483 18.0539 23.1583 17.8039 23.1583 17.5439C23.1683 16.1339 23.7783 14.2639 24.8183 11.4839C25.1183 10.6539 24.7983 9.73392 23.9883 9.37392Z" fill="#B859D3"/>
<path d="M22.8443 21.7543L24.3245 21.125L23.992 20.3428L10.772 25.9628L11.1045 26.745L12.581 26.1174L14.2669 30.0997L15.0496 29.7683L13.3632 25.7848L14.4742 25.3125L16.1673 29.2903L16.9494 28.9574L15.2564 24.98L16.3716 24.5059L18.0673 28.4806L18.8491 28.1471L17.1539 24.1734L18.272 23.698L19.9671 27.6804L20.7492 27.3475L19.0543 23.3655L20.1722 22.8902L21.8568 26.8696L22.6396 26.5382L20.9545 22.5577L22.0621 22.0868L23.7573 26.0607L24.5392 25.7272L22.8443 21.7543Z" fill="#8C42B3"/>
</svg>

<svg xmlns="http://www.w3.org/2000/svg" width="32" height="32" fill="none"><path fill="#6B438B" d="M26.148 9.054c-.79-.41-1.75-.1-2.16.69l-1.83 3.62-.67-2.68c-.01-.08-.02-.16-.04-.24l-1.76-6.56c-.22-.83-1.06-1.39-1.9-1.19-.87.21-1.39 1.09-1.16 1.94l1.57 5.85-.4.14-2.23-7.44c-.25-.83-1.1-1.36-1.94-1.13-.86.23-1.36 1.13-1.1 1.98l2.29 7.63-.3.1-2.54-6.66c-.31-.81-1.19-1.28-2.01-1-.84.29-1.28 1.22-.96 2.05l2.51 6.62-.44.15-1.92-4.51a1.58 1.58 0 0 0-2.07-.83 1.58 1.58 0 0 0-.83 2.07l1.84 4.32 2.57 7.29.02-.01 2.14 6.07a2.467 2.467 0 0 0 3.15 1.51l8.89-3.13a2.467 2.467 0 0 0 1.51-3.15l-1.64-4.64c.03-.25.05-.5.07-.75.1-1.4.83-3.24 2.04-5.94.35-.82.09-1.76-.7-2.17Z"/><path fill="#B859D3" d="M23.988 9.374c-.81-.36-1.76.01-2.11.82l-1.6 3.73-.84-2.64c-.01-.08-.03-.16-.06-.24l-2.17-6.43c-.28-.82-1.15-1.32-1.97-1.07-.86.26-1.32 1.17-1.04 2.01l1.94 5.74-.4.17-2.7-7.29c-.3-.81-1.19-1.28-2-1.01-.86.28-1.29 1.21-.99 2.04l2.77 7.47-.3.12-2.92-6.47c-.36-.79-1.27-1.2-2.07-.87-.83.35-1.2 1.3-.83 2.11l2.92 6.45-.43.18-2.2-4.39a1.583 1.583 0 0 0-2.12-.69c-.78.39-1.09 1.34-.7 2.12l2.1 4.19 3.03 7.12.02-.01 2.52 5.92a2.477 2.477 0 0 0 3.24 1.31l8.68-3.69a2.477 2.477 0 0 0 1.31-3.24l-1.93-4.53c.01-.25.02-.5.02-.76.01-1.41.62-3.28 1.66-6.06.3-.83-.02-1.75-.83-2.11Z"/><path fill="#8C42B3" d="m22.844 21.754 1.48-.629-.332-.782-13.22 5.62.332.782 1.477-.628 1.686 3.983.783-.332-1.687-3.983 1.111-.473 1.693 3.978.782-.333-1.693-3.977 1.116-.474 1.695 3.975.782-.334-1.695-3.974 1.118-.475 1.695 3.982.782-.332-1.695-3.982 1.118-.476 1.685 3.98.783-.332-1.686-3.98 1.108-.471 1.695 3.974.782-.334-1.695-3.973Z"/></svg>
